X:1
T:All my trials
M:4/4
L:1/4
K:D
 z A/2A/2 D/2D/2 E/2E/2| F G A/2A/2 B| =c4-| =c3 c| d A A2-| A A/2A/2 A A|\
 B4-| G4| F4-| F3 F| F/2 E E/2- E2-| E4| E4-| E3 F| E/2 D/2- D3| z d d A|\
 d/2 d/2- d3| z A A B| A/2 D G/2- G2-| G4| F4-| F3 F| F/2 E E/2- E2-|\
 E4| E4-| E3 F| E/2 D/2- D3-| D3 z|
